public/img/decorations/deco-lines-6.svg

<svg width="114" height="24" viewBox="0 0 114 24" fill="none" xmlns="http://www.w3.org/2000/svg">
<path d="M77.2898 7.81611C73.5101 11.5722 70.0976 14.9693 66.683 18.3611C65.3986 19.6357 64.2465 21.0265 62.7984 22.1606C60.282 24.1392 57.516 23.7993 55.709 21.3022C53.3921 18.0941 51.2787 14.7889 48.9848 11.5739C48.2503 10.5421 47.5829 9.35425 45.9984 8.98835C44.204 9.80165 43.9795 11.2479 43.6038 12.5606C43.0288 14.5773 42.6342 16.6322 42.1431 18.6663C41.8493 19.8889 41.6499 21.1392 41.1798 22.3131C40.4264 24.1842 38.057 24.5675 36.4095 23.116C35.7274 22.5178 35.1608 21.8085 34.676 21.0889C32.8837 18.4288 31.1796 15.7305 29.3894 13.0704C27.3579 10.0496 25.2844 7.04789 23.1941 4.0531C22.8688 3.58489 22.3588 3.20513 21.6977 2.55138C21.0681 3.08375 20.342 3.44968 20.0566 3.97684C18.3251 7.16064 16.2264 10.1225 13.3029 12.6768C11.3407 14.3901 9.00065 15.3213 6.14853 15.1756C3.44333 15.0386 1.40974 13.8941 0.0749775 11.9675C-0.105509 11.7057 0.0623362 11.0866 0.339363 10.8542C0.61429 10.6219 1.34044 10.4918 1.67832 10.6323C2.56397 10.9999 3.32793 11.5583 4.1716 12.0005C7.00273 13.4779 9.02165 13.3912 11.3617 11.3866C13.8004 9.30222 16.0417 7.06524 17.3282 4.28722C17.8067 3.2537 18.4216 2.25834 19.0911 1.29939C20.0439 -0.05321 21.8845 -0.420855 23.3683 0.534632C24.4113 1.20746 25.3788 2.03981 26.0903 2.95368C27.3579 4.57679 28.6255 6.2398 29.4964 8.02245C31.3202 11.7612 33.8197 15.1774 36.4032 18.5658C36.7327 18.9976 37.2322 19.3444 37.9772 20.0294C38.5166 18.8831 39.0308 18.0473 39.2952 17.1646C39.8597 15.2866 40.0948 13.3254 40.8419 11.5028C41.417 10.0982 42.3865 8.73694 43.5072 7.57162C45.1085 5.90515 47.394 5.89994 49.094 7.50224C51.0835 9.37333 52.8086 11.4022 53.9545 13.7589C55.2011 16.3097 56.645 18.7929 59.0627 20.9484C59.7532 20.7455 60.4772 20.6901 60.9369 20.3675C61.9547 19.66 62.9369 18.8814 63.7659 18.0195C67.3126 14.345 70.7944 10.6253 74.3139 6.93689C75.5563 5.63632 76.8679 5.31033 78.742 6.06466C79.9068 6.53633 81.1241 7.17102 81.8943 8.00165C83.9258 10.1901 85.7601 12.5086 87.6006 14.8132C88.5933 16.0548 89.439 17.3797 90.4023 18.7427C92.0624 17.9675 92.1569 16.686 92.5955 15.5311C93.4455 13.2907 94.2472 11.0225 95.3553 8.8687C95.924 7.76755 96.9439 6.72885 98.0458 5.93463C101.158 3.69071 104.145 3.64043 107.696 5.49418C110.783 7.10862 112.995 9.21724 114 12.9247C112.97 12.2155 112.361 11.9935 112.153 11.619C111.108 9.75135 108.894 8.8583 107.19 7.58374C103.912 5.1352 99.5086 6.08545 97.8128 9.53804C96.8747 11.449 96.2829 13.4832 95.6743 15.4947C95.1538 17.234 94.8474 19.0132 94.4087 20.7698C94.3101 21.1687 94.094 21.5588 93.8652 21.9247C93.0027 23.3224 91.0299 23.6432 89.6552 22.601C88.1316 21.4444 87.246 19.9704 86.5534 18.3837C85.1179 15.0785 82.6057 12.2953 80.0369 9.56233C79.464 8.94673 78.507 8.57391 77.2898 7.81611Z" fill="#212529"/>
</svg>

<svg width="114" height="24" fill="none" xmlns="http://www.w3.org/2000/svg"><path d="M77.29 7.816c-3.78 3.756-7.192 7.153-10.607 10.545-1.284 1.275-2.437 2.665-3.885 3.8-2.516 1.978-5.282 1.638-7.089-.859-2.317-3.208-4.43-6.513-6.724-9.728-.735-1.032-1.402-2.22-2.987-2.586-1.794.814-2.018 2.26-2.394 3.573-.575 2.016-.97 4.071-1.46 6.105-.295 1.223-.494 2.473-.964 3.647-.754 1.871-3.123 2.255-4.77.803-.683-.598-1.25-1.308-1.734-2.027-1.792-2.66-3.496-5.358-5.287-8.019a631.378 631.378 0 00-6.195-9.017c-.325-.468-.835-.848-1.496-1.502-.63.533-1.356.899-1.641 1.426-1.732 3.184-3.83 6.146-6.754 8.7C11.34 14.39 9 15.32 6.149 15.176c-2.706-.137-4.74-1.282-6.074-3.209-.18-.261-.013-.88.264-1.113.275-.232 1.001-.362 1.34-.222.885.368 1.649.926 2.493 1.369 2.83 1.477 4.85 1.39 7.19-.614 2.438-2.085 4.68-4.322 5.966-7.1.479-1.033 1.094-2.029 1.763-2.988.953-1.352 2.793-1.72 4.277-.764 1.043.672 2.01 1.505 2.722 2.419 1.268 1.623 2.535 3.286 3.406 5.068 1.824 3.74 4.324 7.155 6.907 10.544.33.432.83.778 1.574 1.463.54-1.146 1.054-1.982 1.318-2.864.565-1.878.8-3.84 1.547-5.662.575-1.405 1.544-2.766 2.665-3.931 1.602-1.667 3.887-1.672 5.587-.07 1.99 1.871 3.715 3.9 4.86 6.257 1.247 2.55 2.691 5.034 5.109 7.19.69-.204 1.414-.259 1.874-.582 1.018-.707 2-1.486 2.829-2.348 3.547-3.674 7.028-7.394 10.548-11.082 1.242-1.3 2.554-1.627 4.428-.872 1.165.471 2.382 1.106 3.152 1.937 2.032 2.188 3.866 4.507 5.707 6.811.992 1.242 1.838 2.567 2.801 3.93 1.66-.775 1.755-2.057 2.194-3.212.85-2.24 1.651-4.508 2.76-6.662.568-1.101 1.588-2.14 2.69-2.934 3.112-2.244 6.099-2.295 9.65-.44 3.087 1.614 5.299 3.722 6.304 7.43-1.03-.71-1.639-.932-1.847-1.306-1.045-1.868-3.259-2.76-4.963-4.035-3.278-2.449-7.681-1.499-9.377 1.954-.938 1.911-1.53 3.945-2.139 5.957-.52 1.739-.827 3.518-1.265 5.275-.099.399-.315.789-.544 1.155-.862 1.397-2.835 1.718-4.21.676-1.523-1.157-2.409-2.63-3.102-4.217-1.435-3.306-3.947-6.089-6.516-8.822-.573-.615-1.53-.988-2.747-1.746z" fill="#212529"/></svg>
